X: 2211
T: Autumn Child
R: reel
M: 4/4
K: Adorian
cd|:e2AB c2dc|B2AB G2ED|EAAB cdef|g2fe defg|
e2AB c2dc|B2AB G2ED|EAAB cded|BcBG ABcd:|
|:e2 a2 g3a|f2ed eABA|GAB^c d2ef|g2fe defg|
e2AB c2dc|B2AB G2ED|EAAB cded|1 BcBG ABcd:|2 BcBG A4||

